X:13194
T:Plains of Boyle, The
M:4/4
R:hornpipe
E:7
K:D
FG|AFDE FED2|(3ABA GB AFD2|fedf edce|dcAB =cABG|AFDE FED2|(3ABA GB AFD2|fedc (3ABc AG|F2D2D2:|
fg|afdf g2 fe|dfed BAF2|(3ABA FA BAF2|(3ABA FA BAfg|afdf g2 fe|dfed BAF2|(3ABA AF GEAG|F2D2D2:|
